!!!OTL: Ridou chuzai jiulongkou
!!!ARE: Asia, China,ÿQinghai Osten
!! I, 232
!!!SCT: C2075
!!!YEM: Copyright 1995, estate of Helmut Schaffrath.
**kern
*ICvox
*Ivox
*M3/4
*k[]
*C:
{4g
4a
4cc
=1
4g
4a
4cc
=2
4g
4a
4cc
=3
8dd
4.dd
4gg}
=4
{4gg
4cc
4dd
=5
4cc
4.a
8r
=6
4g
4a
4cc
=7
4dd
2r}
=8
{4g
4a
4cc
=9
4g
4a
4cc
=10
4dd
4a
4cc
=11
8dd
8gg
4a
4g
=12
4g
[2g
=13
2.g]}
==
!!!AGN: Shange, Huar, Raosanraoling
!! Hui Han
!!!ONB: ESAC (Essen Associative Code) Database: SENGANSU
!!!AMT: simple triple
!!!AIN: vox
!!!EED: Helmut Schaffrath
!!!EEV: 1.0
*-
!!!ONB: Tied note syntax fixed by Craig Sapp, 2004/05/03/
